src/assets/images/landing/2-deco-1.svg

<svg width="526" height="753" fill="none" xmlns="http://www.w3.org/2000/svg"><path d="M476.745 122.781l6.38-21.104L461.5 95l-8.84 20.5 24.085 7.281z" stroke="#81EC40" stroke-width="5"/><path d="M189.208 229.483c26.409-29.308 82.963-71.257 107.939-88.567L368 162.5c7.701 4.156 16.191 10.317 17.76 17.269 3.985 17.657-15.869 14.397-19.819 27.461-3.949 13.065 8.882 8.718 5.54 19.773-3.342 11.054-22.659 15.086-19.059 24.949 3.599 9.862 6.602 16.254 3.109 27.812-3.494 11.557-20.228 7.047-26 26.141-5.773 19.095 64.751 76.061 71.412 88.494 6.661 12.434-4.671 117.044-16.193 167.854-11.521 50.809-47.604 137.518-75.357 160.387-27.754 22.87-232.815-40.767-270.011-70.109-37.196-29.342-8.556-91.428 10.35-163.039 18.906-71.61 89.299-166.592 91.426-173.627 2.126-7.035-6.661-12.434-7.351-19.223-.689-6.789 22.389-30.523 55.401-67.159z" stroke="#D9D9D9" stroke-width="5"/><path d="M447.381 121.071l-1.221-2.181 3.722-2.086-.001 4.267h-2.5zm5.529 72.416l2.498-.101-2.498.101zm-20.111-24.178l2.45-.497-2.45.497zM421 121.071l-2.337.887a2.5 2.5 0 012.939-3.314l-.602 2.427zM438.5 124v-2.5 2.5zm11.381-2.929c-.001 8.623 1.089 19.786 2.339 32.339 1.244 12.495 2.635 26.287 3.188 39.976l-4.996.202c-.546-13.516-1.921-27.158-3.168-39.683-1.241-12.467-2.364-23.909-2.363-32.835l5 .001zm5.527 72.315c.401 9.912 3.486 20.858 6.106 30.292 1.29 4.644 2.482 8.979 3.096 12.502.308 1.763.493 3.434.445 4.907-.047 1.429-.319 2.982-1.21 4.243l-4.083-2.886c.067-.095.262-.493.295-1.519.032-.983-.091-2.273-.372-3.886-.564-3.23-1.68-7.309-2.989-12.023-2.578-9.281-5.855-20.824-6.284-31.428l4.996-.202zm8.437 51.944c-.391.553-1.05 1.14-2.017 1.312-.918.163-1.686-.125-2.175-.397-.895-.499-1.609-1.369-2.138-2.106-1.146-1.599-2.448-4.083-3.82-7.048-2.775-5.995-6.104-14.556-9.359-23.558-6.491-17.952-12.848-38.118-13.987-43.726l4.9-.995c1.055 5.195 7.284 25.029 13.789 43.021 3.243 8.969 6.513 17.365 9.194 23.158 1.356 2.928 2.494 5.045 3.347 6.235.471.656.646.728.509.652-.109-.061-.531-.267-1.137-.159a1.863 1.863 0 00-1.189.725l4.083 2.886zm-33.496-75.523c-3.109-15.308-6.995-35.494-11.686-47.849l4.674-1.775c4.876 12.839 8.85 33.554 11.912 48.629l-4.9.995zM421 121.071l.602-2.427.001.001.006.001a.272.272 0 01.023.006l.095.023.375.091a170.37 170.37 0 006 1.318c3.679.735 7.827 1.416 10.398 1.416v5c-3.13 0-7.732-.784-11.378-1.513a173.575 173.575 0 01-6.187-1.36c-.171-.04-.304-.073-.395-.095l-.104-.026a.295.295 0 00-.028-.006l-.007-.002-.002-.001h-.001l.602-2.426zm17.5.429c1.3 0 3.132-.56 4.852-1.274a31.738 31.738 0 002.621-1.235l.148-.08.034-.019.006-.003h-.001l1.221 2.182 1.222 2.181-.001.001-.002.001-.006.003a.146.146 0 00-.016.009l-.056.03a29.48 29.48 0 01-.894.467c-.586.294-1.409.687-2.359 1.081-1.808.751-4.417 1.656-6.769 1.656v-5z" fill="#81EC40"/><path d="M290.105 120.688c7.301 9.227 6.735 17.026 5.539 19.772l72.359 21.874c6.726-10.762 22.365-33.711 31.106-39.405 10.926-7.116 17.704-2.325 37.055.783 15.481 2.486 24.976-25.172 27.788-39.311-37.379-14.225-117.447-42.525-138.686-41.926-26.55.748-77.348 30.91-76.775 45.342.573 14.432 32.487 21.337 41.614 32.871z" stroke="#81EC40" stroke-width="5"/></svg>

<svg width="526" height="753" viewBox="0 0 526 753" fill="none" xmlns="http://www.w3.org/2000/svg">
<path d="M476.745 122.781L483.125 101.677L461.5 94.9998L452.66 115.5L476.745 122.781Z" stroke="#81EC40" stroke-width="5"/>
<path d="M189.208 229.483C215.617 200.175 272.171 158.226 297.147 140.916L368 162.5C375.701 166.656 384.191 172.817 385.76 179.769C389.745 197.426 369.891 194.166 365.941 207.23C361.992 220.295 374.823 215.948 371.481 227.003C368.139 238.057 348.822 242.089 352.422 251.952C356.021 261.814 359.024 268.206 355.531 279.764C352.037 291.321 335.303 286.811 329.531 305.905C323.758 325 394.282 381.966 400.943 394.399C407.604 406.833 396.272 511.443 384.75 562.253C373.229 613.062 337.146 699.771 309.393 722.64C281.639 745.51 76.578 681.873 39.3819 652.531C2.18585 623.189 30.8263 561.103 49.7323 489.492C68.6384 417.882 139.031 322.9 141.158 315.865C143.284 308.83 134.497 303.431 133.807 296.642C133.118 289.853 156.196 266.119 189.208 229.483Z" stroke="#D9D9D9" stroke-width="5"/>
<path d="M447.381 121.071L446.16 118.89L449.882 116.804L449.881 121.071L447.381 121.071ZM452.91 193.487L455.408 193.386L452.91 193.487ZM432.799 169.309L435.249 168.812L435.249 168.812L432.799 169.309ZM421 121.071L418.663 121.958C418.333 121.089 418.513 120.107 419.13 119.412C419.747 118.716 420.7 118.42 421.602 118.644L421 121.071ZM438.5 124L438.5 121.5L438.5 124ZM449.881 121.071C449.88 129.694 450.97 140.857 452.22 153.41C453.464 165.905 454.855 179.697 455.408 193.386L450.412 193.588C449.866 180.072 448.491 166.43 447.244 153.905C446.003 141.438 444.88 129.996 444.881 121.07L449.881 121.071ZM455.408 193.386C455.809 203.298 458.894 214.244 461.514 223.678C462.804 228.322 463.996 232.657 464.61 236.18C464.918 237.943 465.103 239.614 465.055 241.087C465.008 242.516 464.736 244.069 463.845 245.33L459.762 242.444C459.829 242.349 460.024 241.951 460.057 240.925C460.089 239.942 459.966 238.652 459.685 237.039C459.121 233.809 458.005 229.73 456.696 225.016C454.118 215.735 450.841 204.192 450.412 193.588L455.408 193.386ZM463.845 245.33C463.454 245.883 462.795 246.47 461.828 246.642C460.91 246.805 460.142 246.517 459.653 246.245C458.758 245.746 458.044 244.876 457.515 244.139C456.369 242.54 455.067 240.056 453.695 237.091C450.92 231.096 447.591 222.535 444.336 213.533C437.845 195.581 431.488 175.415 430.349 169.807L435.249 168.812C436.304 174.007 442.533 193.841 449.038 211.833C452.281 220.802 455.551 229.198 458.232 234.991C459.588 237.919 460.726 240.036 461.579 241.226C462.05 241.882 462.225 241.954 462.088 241.878C461.979 241.817 461.557 241.611 460.951 241.719C460.296 241.836 459.914 242.229 459.762 242.444L463.845 245.33ZM430.349 169.807C427.24 154.499 423.354 134.313 418.663 121.958L423.337 120.183C428.213 133.022 432.187 153.737 435.249 168.812L430.349 169.807ZM421 121.071C421.602 118.644 421.602 118.644 421.602 118.644C421.602 118.644 421.602 118.644 421.602 118.644C421.603 118.644 421.603 118.644 421.603 118.645C421.605 118.645 421.606 118.645 421.609 118.646C421.614 118.647 421.622 118.649 421.632 118.652C421.653 118.657 421.685 118.665 421.727 118.675C421.812 118.696 421.938 118.726 422.102 118.766C422.428 118.844 422.904 118.957 423.492 119.092C424.671 119.363 426.3 119.723 428.102 120.084C431.781 120.819 435.929 121.5 438.5 121.5L438.5 126.5C435.37 126.5 430.768 125.716 427.122 124.987C425.261 124.615 423.584 124.243 422.373 123.965C421.766 123.826 421.275 123.709 420.935 123.627C420.764 123.587 420.631 123.554 420.54 123.532C420.495 123.521 420.46 123.512 420.436 123.506C420.424 123.503 420.415 123.501 420.408 123.5C420.405 123.499 420.403 123.498 420.401 123.498C420.4 123.498 420.399 123.497 420.399 123.497C420.398 123.497 420.398 123.497 420.398 123.497C420.398 123.497 420.398 123.497 421 121.071ZM438.5 121.5C439.8 121.5 441.632 120.94 443.352 120.226C444.166 119.888 444.878 119.549 445.386 119.294C445.639 119.167 445.839 119.062 445.973 118.991C446.039 118.955 446.09 118.928 446.121 118.911C446.137 118.902 446.148 118.896 446.155 118.892C446.158 118.89 446.16 118.889 446.161 118.889C446.161 118.889 446.161 118.889 446.161 118.889C446.161 118.889 446.161 118.889 446.161 118.889C446.16 118.889 446.16 118.889 446.16 118.889C446.16 118.889 446.16 118.89 447.381 121.071C448.603 123.252 448.603 123.252 448.603 123.252C448.602 123.252 448.602 123.252 448.602 123.253C448.601 123.253 448.6 123.253 448.6 123.254C448.598 123.254 448.596 123.255 448.594 123.257C448.59 123.259 448.584 123.262 448.578 123.266C448.564 123.273 448.546 123.284 448.522 123.296C448.476 123.322 448.41 123.358 448.326 123.402C448.16 123.491 447.923 123.615 447.628 123.763C447.042 124.057 446.219 124.45 445.269 124.844C443.461 125.595 440.852 126.5 438.5 126.5L438.5 121.5Z" fill="#81EC40"/>
<path d="M290.105 120.688C297.406 129.915 296.84 137.714 295.644 140.46L368.003 162.334C374.729 151.572 390.368 128.623 399.109 122.929C410.035 115.813 416.813 120.604 436.164 123.712C451.645 126.198 461.14 98.5403 463.952 84.4006C426.573 70.1759 346.505 41.8763 325.266 42.475C298.716 43.2234 247.918 73.3851 248.491 87.8169C249.064 102.249 280.978 109.154 290.105 120.688Z" stroke="#81EC40" stroke-width="5"/>
</svg>
